X:4087
L:1/16
M:2/4
K:G
 D2 |"G" G2GG D2B,D |"G" G2GB"D" A2SD2 |"G" G2GG"Bm" D2B,D |"Em" G2GB"D" A2SB2 | 
"Em" G2Bd"Am" cBAG |"C" E2E2"D" A2SFE |"Bm" D2D2"D" F2DF |"D7" A2"G"G2 z2 |]

